!!!!SEGMENT: pl-sa--230-a-vi-34--007_luna-georgius--litania-virgo-prudentissima.krn
!!!cenid: 17xx:501
!!!COM: Luna, Georgius
!!!COM-rismID: pe41010079
!!!CDT:
!!!CNT:
!!!OPR: Litania
!!!OTL: Virgo prudentissima
!!!OMV: 007
!!!PDT:
!!!AGN: Sacred; Mass
!!!SMS-siglum: PL-SA
!!!SMS-shelfmark: 230/A VI 34
!!!SMS-shelfwork: 001-007 M
!!!SMS-variant: PL-SA 230/A VI 34:9
!!!SMS-altvar: PL-SA 230/A VI 34:30
!!!NIFC-rismSourceID: 1001070084
!!!NIFC-rismChildID: 1001070084
!!!NIFC-islandoraID: none
!!!URL-pdf-islandora:
!!!URL-scan: https://bc.bdsandomierz.pl/dlibra/publication/1606/edition/1574/content @EN{Scan in the Sandomierz Diocese Digital Library} @PL{Skany w portalu Cyfrowa Biblioteka Diecezjalna w Sandomierzu}
!!!IIIF:
!!!ONB-nifc: UWAGA: części Litanii: Simphonia, Kirie, Pater de caelis, Sancta Maria, Mater Christi, Mater amabilis,
!!!AIN: 3 empty 1 tenor 2 violn 1 vox
!!!key:
**kern	**dynam	**kern	**dynam	**kern	**dynam	**kern	**kern	**text	**kern	**kern
*part7	*	*part6	*	*part5	*	*part4	*part3	*part3	*part2	*part1
*staff7	*	*staff6	*	*staff5	*	*staff4	*staff3	*staff3	*staff2	*staff1
*Iempty	*	*Ivioln	*	*Ivioln	*	*Itenor	*Ivox	*	*Iempty	*Iempty
*I"Fundamenti	*	*I"Violino 2do.	*	*I"Violino 1mo	*	*I"Tenore	*I"Canto	*	*I"Clarino 2do ex C	*I"Clarino 1mo ex C
*I'bc	*	*I'vl 2	*	*I'vl 1	*	*I'T	*I'S	*	*I'clno 2 in C	*I'clno 1 in C
*clefF4	*	*clefG2	*	*clefG2	*	*clefC4	*clefC1	*	*clefG2	*clefG2
*k[]	*	*k[]	*	*k[]	*	*k[]	*k[]	*	*k[]	*k[]
*C:	*	*C:	*	*C:	*	*C:	*C:	*	*C:	*C:
*M4/4	*	*M4/4	*	*M4/4	*	*M4/4	*M4/4	*	*M4/4	*M4/4
*met(c)	*	*met(c)	*	*met(c)	*	*met(c)	*met(c)	*	*met(c)	*met(c)
=1	=1	=1	=1	=1	=1	=1	=1	=1	=1	=1
!LO:SIC:o:s=:v:8\right	!	!LO:SIC:o:s=:v:4\right	!	!LO:SIC:o:s=:v:4\right	!	!LO:TX:a:t=Tacet	!	!	!LO:TX:a:t=Tacet	!LO:TX:a:t=Tacet
8c\L	.	4gg\	.	4gg\	.	1ryy	00r	.	1ryy	1ryy
8c\	.	.	.	.	.	.	.	.	.	.
!	!	!LO:SIC:o:s=:v:16\right	!	!LO:SIC:o:s=:v:16\right	!	!	!	!	!	!
8B\	.	16gg\LL	.	16gg\LL	.	.	.	.	.	.
.	.	16ff\	.	16ff\	.	.	.	.	.	.
8B\J	.	16ee\	.	16ee\	.	.	.	.	.	.
.	.	16dd\JJ	.	16dd\JJ	.	.	.	.	.	.
.	.	16qqdd/	.	16qqdd/	.	.	.	.	.	.
8A\L	.	16cc\LL	.	16cc\LL	.	.	.	.	.	.
.	.	16b\J	.	16b\J	.	.	.	.	.	.
!	!	!LO:SIC:o:s=:v:8\right	!	!LO:SIC:o:s=:v:8\right	!	!	!	!	!	!
8A\	.	[8cc\J	.	8cc\J	.	.	.	.	.	.
8E\	.	16cc\LL]	.	16cc\LL	.	.	.	.	.	.
.	.	16ccc\	.	16ccc\	.	.	.	.	.	.
8E\J	.	16bb\	.	16bb\	.	.	.	.	.	.
.	.	16ccc\JJ	.	16ccc\JJ	.	.	.	.	.	.
=2	=2	=2	=2	=2	=2	=2	=2	=2	=2	=2
8F\L	.	4aa\	.	4aa\	.	1ryy	.	.	1ryy	1ryy
8F\	.	.	.	.	.	.	.	.	.	.
8G\	.	(16gg\LL	.	16gg\LL	.	.	.	.	.	.
.	.	16ee\	.	16ee\	.	.	.	.	.	.
8G\J	.	16ff\	.	16ff\	.	.	.	.	.	.
.	.	16dd\JJ)	.	16dd\JJ	.	.	.	.	.	.
8C/L	.	(16ee\LL	.	(16ee\LL	.	.	.	.	.	.
.	.	16dd\J)	.	16dd\J)	.	.	.	.	.	.
8C/	.	8cc\J	.	8cc\J	.	.	.	.	.	.
8E/	.	(16cc\LL	.	(16cc\LL	.	.	.	.	.	.
.	.	16cc\	.	16cc\	.	.	.	.	.	.
8E/J	.	16b\)	.	16b\)	.	.	.	.	.	.
.	.	16cc\JJ	.	16cc\JJ	.	.	.	.	.	.
=3	=3	=3	=3	=3	=3	=3	=3	=3	=3	=3
8F\L	.	4a/	.	4a/	.	1ryy	.	.	1ryy	1ryy
8F\	.	.	.	.	.	.	.	.	.	.
8G\	.	(16g/LL	.	16g/LL	.	.	.	.	.	.
.	.	16e/	.	16e/	.	.	.	.	.	.
8G\J	.	16f/	.	16f/	.	.	.	.	.	.
.	.	16d/JJ)	.	16d/JJ	.	.	.	.	.	.
8C\L	.	16e/LL	.	16e/LL	.	.	.	.	.	.
.	.	16d/J	.	16d/J	.	.	.	.	.	.
8D\	.	8c/J	.	8c/J	.	.	.	.	.	.
8E\	.	8r	.	8r	.	.	.	.	.	.
8BB\J	.	8dd\	.	8dd\	.	.	.	.	.	.
=4	=4	=4	=4	=4	=4	=4	=4	=4	=4	=4
8C\L	.	16ee\LL	.	16ee\LL	.	1ryy	.	.	1ryy	1ryy
.	.	16cc\J	.	16cc\J	.	.	.	.	.	.
8C\	.	8aa\J	.	8aa\J	.	.	.	.	.	.
8D\	.	16ff#X\LL	.	16ff#X\LL	.	.	.	.	.	.
.	.	16ee\	.	16ee\	.	.	.	.	.	.
8D\J	.	16dd\	.	16dd\	.	.	.	.	.	.
.	.	16cc\JJ	.	16cc\JJ	.	.	.	.	.	.
8GG/L	.	8ccM\L	.	8ccM\L	.	.	.	.	.	.
8GG/	.	8cc\J	.	8b\J	.	.	.	.	.	.
8C/	.	16ee\LL	.	16ee\LL	.	.	.	.	.	.
.	.	16cc\	.	16cc\	.	.	.	.	.	.
8AA/J	.	16dd\	.	16dd\	.	.	.	.	.	.
.	.	16ee\JJ	.	16ee\JJ	.	.	.	.	.	.
!	!	!LO:LB:g=original	!	!	!	!	!	!	!	!
=5	=5	=5	=5	=5	=5	=5	=5	=5	=5	=5
8BB/L	.	16dd\LL	.	16dd\LL	.	1ryy	00r	.	1ryy	1ryy
.	.	16gg\	.	16gg\	.	.	.	.	.	.
8GG/	.	16b\	.	16b\	.	.	.	.	.	.
.	.	16dd\JJ	.	16dd\JJ	.	.	.	.	.	.
.	.	8qqdd/	.	8qqdd/	.	.	.	.	.	.
8AA/	.	4ccM\	.	4ccM\	.	.	.	.	.	.
8D/J	.	.	.	.	.	.	.	.	.	.
8GG/L	.	16b\LL	.	16b\LL	.	.	.	.	.	.
.	.	16gg\	.	16gg\	.	.	.	.	.	.
8C/	.	16b\	.	16b\	.	.	.	.	.	.
.	.	16dd\JJ	.	16dd\JJ	.	.	.	.	.	.
.	.	8qqdd/	.	8qqdd/	.	.	.	.	.	.
8AA/	.	4ccM\	.	4ccM\	.	.	.	.	.	.
8D/J	.	.	.	.	.	.	.	.	.	.
!	!	!	!	!LO:LB:g=original	!	!	!	!	!	!
=6	=6	=6	=6	=6	=6	=6	=6	=6	=6	=6
*	*	*Xtuplet	*	*Xtuplet	*	*	*	*	*	*
8GG/L	.	24b\LL	.	24b\LL	.	1ryy	.	.	1ryy	1ryy
.	.	24gg\	.	24gg\	.	.	.	.	.	.
.	.	24ff#X\JJ	.	24ff\JJ	.	.	.	.	.	.
8C/	.	24ee\LL	.	24ee\LL	.	.	.	.	.	.
.	.	24dd\	.	24dd\	.	.	.	.	.	.
.	.	24cc\JJ	.	24cc\JJ	.	.	.	.	.	.
8D/	.	24b\LL	.	8b/L	.	.	.	.	.	.
.	.	24a\	.	.	.	.	.	.	.	.
.	.	24g\JJ	.	.	.	.	.	.	.	.
8DD/J	.	16b/LL	.	8a/J	.	.	.	.	.	.
.	.	16aM/JJ	.	.	.	.	.	.	.	.
!LO:TX:a:t=P:problem=mixed beam	!	!	!	!	!	!	!	!	!	!
8GG/L	.	4g/	.	4g/	.	.	.	.	.	.
8G\	.	.	.	.	.	.	.	.	.	.
8E\	.	16cc\LL	.	16cc\LL	.	.	.	.	.	.
.	.	16gg\J	.	16gg\J	.	.	.	.	.	.
8C\J	.	8ggM\J	.	8ggM\J	.	.	.	.	.	.
!LO:LB:g=original	!	!	!	!	!	!	!	!	!	!
=7	=7	=7	=7	=7	=7	=7	=7	=7	=7	=7
8F\L	.	16aa\LL	.	16aa\LL	.	1ryy	.	.	1ryy	1ryy
.	.	16ffn\J	.	16ffn\J	.	.	.	.	.	.
8A\	.	8ffM\J	.	8ffM\J	.	.	.	.	.	.
8E\	.	16gg\LL	.	16gg\LL	.	.	.	.	.	.
.	.	16b-X\J	.	16b-X\J	.	.	.	.	.	.
8C\J	.	8b-M\J	.	8b-M\J	.	.	.	.	.	.
!LO:TX:a:t=P:problem=mixed beam	!	!	!	!	!	!	!	!	!	!
8F\L	.	8b-\L	.	8b-/L	.	.	.	.	.	.
8FF/	.	8a\J	.	8a/J	.	.	.	.	.	.
8F\	.	4aa\	.	4aa\	.	.	.	.	.	.
8D\J	.	.	.	.	.	.	.	.	.	.
=8	=8	=8	=8	=8	=8	=8	=8	=8	=8	=8
.	.	8qqaa/	.	.	.	.	.	.	.	.
8E\L	.	4gg\	.	4gg\	.	1ryy	.	.	1ryy	1ryy
8C\	.	.	.	.	.	.	.	.	.	.
8D\	.	16ff\LL	.	16ff\LL	.	.	.	.	.	.
.	.	16ee\	.	16ee\	.	.	.	.	.	.
8F\J	.	16dd\	.	16dd\	.	.	.	.	.	.
.	.	16cc\JJ	.	16cc\JJ	.	.	.	.	.	.
!LO:TX:a:t=P:problem=mixed beam	!	!	!	!	!	!	!	!	!	!
8G\L	.	16bn/LL	.	16bn/LL	.	.	.	.	.	.
.	.	16a/J	.	16a/J	.	.	.	.	.	.
8GG/	.	8g/J	.	8g/J	.	.	.	.	.	.
8BB/	.	16ff\LL	.	16ff\LL	.	.	.	.	.	.
.	.	16ff\	.	16ff\	.	.	.	.	.	.
8GG/J	.	16ff\	.	16ff\	.	.	.	.	.	.
.	.	16ff\JJ	.	16ff\JJ	.	.	.	.	.	.
!	!	!LO:LB:g=original	!	!	!	!	!	!	!	!
=9	=9	=9	=9	=9	=9	=9	=9	=9	=9	=9
8C/L	.	16ee\LL	.	16ee\LL	.	1ryy	00r	.	1ryy	1ryy
.	.	16gg\J	.	16gg\J	.	.	.	.	.	.
8E/	.	8ccc\J	.	8ccc\J	.	.	.	.	.	.
8D/	.	16ff\LL	.	16ff\LL	.	.	.	.	.	.
.	.	16ff\	.	16ff\	.	.	.	.	.	.
8GG/J	.	16ff\	.	16ff\	.	.	.	.	.	.
.	.	16ff\JJ	.	16ff\JJ	.	.	.	.	.	.
8C\L	.	16ee\LL	.	16ee\LL	.	.	.	.	.	.
.	.	16gg\J	.	16gg\J	.	.	.	.	.	.
!	!	!	!	!LO:N:vis=16	!	!	!	!	!	!
8E\	.	8ccc\J	.	8ccc\J	.	.	.	.	.	.
8F\	.	4aa\	.	4aa\	.	.	.	.	.	.
8D\J	.	.	.	.	.	.	.	.	.	.
=10	=10	=10	=10	=10	=10	=10	=10	=10	=10	=10
!LO:TX:a:t=P:problem=mixed beam	!	!	!	!	!	!	!	!	!	!
8E\L	.	16gg\LL	.	16gg\LL	.	1ryy	.	.	1ryy	1ryy
.	.	16ee\	.	16ee\	.	.	.	.	.	.
8F\	.	16ff\	.	16ff\	.	.	.	.	.	.
.	.	16dd\JJ	.	16dd\JJ	.	.	.	.	.	.
8G\	.	16ee\LL	.	16ee\LL	.	.	.	.	.	.
.	.	16cc\	.	16cc\	.	.	.	.	.	.
8GG/J	.	16dd\	.	16dd\	.	.	.	.	.	.
.	.	16b\JJ	.	16b\JJ	.	.	.	.	.	.
*	*	*	*	*custos:cc	*	*	*	*	*	*
!	!	!	!	!LO:LB:g=original	!	!	!	!	!	!
!LO:TX:a:t=P:problem=mixed beam	!	!	!	!	!	!	!	!	!	!
.	.	8qqb/	.	.	.	.	.	.	.	.
8C\L	p	4cc\	.	4cc\	p	.	.	.	.	.
8E\	.	.	.	.	.	.	.	.	.	.
8D\	.	16ff\LL	.	16ff\LL	.	.	.	.	.	.
.	.	16ff\	.	16ff\	.	.	.	.	.	.
8GG/J	.	16ff\	.	16ff\	.	.	.	.	.	.
.	.	16ff\JJ	.	16ff\JJ	.	.	.	.	.	.
=11	=11	=11	=11	=11	=11	=11	=11	=11	=11	=11
!LO:TX:a:t=P:problem=mixed beam	!	!	!	!	!	!	!	!	!	!
8C\L	.	16ee\LL	.	16ee\LL	.	1ryy	.	.	1ryy	1ryy
.	.	16gg\J	.	16gg\J	.	.	.	.	.	.
8E\	.	8ccc\J	.	8ccc\J	.	.	.	.	.	.
8D\	.	16ff\LL	.	16ff\LL	.	.	.	.	.	.
.	.	16ff\	.	16ff\	.	.	.	.	.	.
8GG/J	.	16ff\	.	16ff\	.	.	.	.	.	.
.	.	16ff\JJ	.	16ff\JJ	.	.	.	.	.	.
8C\L	.	16ee\LL	.	16ee\LL	.	.	.	.	.	.
.	.	16gg\J	.	16gg\J	.	.	.	.	.	.
8E\	.	8ccc\J	.	8ccc\J	.	.	.	.	.	.
8F\	.	4aa\	.	4aa\	.	.	.	.	.	.
8D\J	.	.	.	.	.	.	.	.	.	.
=12	=12	=12	=12	=12	=12	=12	=12	=12	=12	=12
!LO:TX:a:t=P:problem=mixed beam	!	!	!	!	!	!	!	!	!	!
8E\L	f	16gg\LL	.	16gg\LL	.	1ryy	.	.	1ryy	1ryy
.	.	16ee\	.	16ee\	.	.	.	.	.	.
8F\	.	16ff\	.	16ff\	.	.	.	.	.	.
.	.	16dd\JJ	.	16dd\JJ	.	.	.	.	.	.
8G\	.	16ee\LL	.	16ee\LL	.	.	.	.	.	.
.	.	16cc\	.	16cc\	.	.	.	.	.	.
8GG/J	.	16dd\	.	16dd\	.	.	.	.	.	.
.	.	16b\JJ	.	16b\JJ	.	.	.	.	.	.
4C/	.	8cc/L	.	8cc/L	.	.	.	.	.	.
.	.	16g/L	.	16g/L	.	.	.	.	.	.
.	.	16e/JJ	.	16e/JJ	.	.	.	.	.	.
4r	.	4c;/	.	4c;/	.	.	.	.	.	.
!	!	!LO:LB:g=original	!	!	!	!	!	!	!	!
=13||	=13||	=13||	=13||	=13||	=13||	=13||	=13||	=13||	=13||	=13||
!	!	!LO:SIC:o=:v:pięciolinia niewyraźna	!	!	!	!	!	!	!	!
!	!LO:DY:b	!	!	!	!LO:DY:b	!	!LO:SIC:o:s=:v:4\right	!	!	!
8c\L	p	8cc\L	p	4gg\	p	1ryy	4gg\	Vir-	1ryy	1ryy
8c\	.	8cc\	.	.	.	.	.	.	.	.
!	!	!	!	!	!	!	!LO:SIC:o:s=:v:16\right	!	!	!
8B\	.	8b\	.	16gg\LL	.	.	16gg\LL	.	.	.
.	.	.	.	16ff\	.	.	16ff\	.	.	.
8B\J	.	8cc\J	.	16ee\	.	.	16ee\	.	.	.
.	.	.	.	16dd\JJ	.	.	16dd\JJ	.	.	.
.	.	.	.	8qqdd/	.	.	.	.	.	.
8A\L	.	8g\L	.	16cc\LL	.	.	16cc\LL	-go	.	.
.	.	.	.	16b\J	.	.	16b\JJ	.	.	.
8A\	.	8a\	.	8cc\J	.	.	8cc\	.	.	.
8E\	.	8f\	.	16cc\LL	.	.	4r	.	.	.
.	.	.	.	16ccc\	.	.	.	.	.	.
8E\J	.	8g\J	.	16bb\	.	.	.	.	.	.
.	.	.	.	16ccc\JJ	.	.	.	.	.	.
!LO:LB:g=original	!	!	!	!	!	!	!	!	!	!
=14	=14	=14	=14	=14	=14	=14	=14	=14	=14	=14
8F\L	.	4ff\	.	4aa\	.	1ryy	4aa\	Pru-	1ryy	1ryy
8F\	.	.	.	.	.	.	.	.	.	.
8G\	.	16ee\LL	.	16gg\LL	.	.	16gg\LL	-den-	.	.
.	.	16cc\	.	16ee\	.	.	16ee\JJ	.	.	.
8G\J	.	16dd\	.	16ff\	.	.	16ff\LL	.	.	.
.	.	16b\JJ	.	16dd\JJ	.	.	16dd\JJ	.	.	.
8C/L	.	16g/LL	.	(16ee\LL	.	.	16ee\	-tis-	.	.
.	.	16f/J	.	16dd\J)	.	.	16dd\	-si-	.	.
!	!	!	!	!	!	!	!LO:SIC:o:s=:v:8\right	!	!	!
8C/	.	8e/J	.	8cc\J	.	.	8cc\	-ma	.	.
8E/	.	8g/L	.	(16cc\LL	.	.	16r	.	.	.
!	!	!	!	!	!	!	!LO:LB:g=original	!	!	!
.	.	.	.	16cc\	.	.	16cc\LL	o-	.	.
8E/J	.	8g/J	.	16b\)	.	.	16b\	.	.	.
.	.	.	.	16cc\JJ	.	.	16cc\JJ	.	.	.
!	!	!	!	!LO:LB:g=original	!	!	!	!	!	!
=15	=15	=15	=15	=15	=15	=15	=15	=15	=15	=15
8F\L	.	4f/	.	4a/	.	1ryy	4aa\	.	1ryy	1ryy
8F\	.	.	.	.	.	.	.	.	.	.
8G\	.	16e/LL	.	16g/LL	.	.	16gg\LL	-ra	.	.
.	.	16c/	.	(16e/	.	.	16ee\JJ	.	.	.
8G\J	.	16d/	.	16f/	.	.	16ff\LL	pro	.	.
.	.	16B/JJ	.	16d/JJ)	.	.	16dd\JJ	.	.	.
!LO:TX:a:t=P:problem=mixed beam	!LO:DY:b	!LO:TX:a:t=P:problem=mixed beam	!	!LO:TX:a:t=P:problem=mixed beam	!	!	!	!	!	!
8C\L	f	8c/L	f	8e/L	f	.	16ee\LL	no-	.	.
.	.	.	.	.	.	.	16dd\JJ	.	.	.
8E\	.	16ee\L	.	16gg\L	.	.	8cc\	-bis	.	.
.	.	16cc\JJ	.	16ee\JJ	.	.	.	.	.	.
8G\	.	8b\L	.	8dd\L	.	.	8r	.	.	.
8GG/J	.	16dd\L	.	16ff\L	.	.	8dd\	vir-	.	.
.	.	16b\JJ	.	16dd\JJ	.	.	.	.	.	.
=16	=16	=16	=16	=16	=16	=16	=16	=16	=16	=16
8C/L	p	8cc\L	p	8ee\L	.	1ryy	16ee\LL	.	1ryy	1ryy
.	.	.	.	.	.	.	16cc\JJ	.	.	.
8C/	.	8g\	.	8aa\J	.	.	8aa\	-go	.	.
8D/	.	8a\	.	16ff#X\LL	.	.	16ff#X\LL	ve-	.	.
.	.	.	.	16ee\	.	.	16ee\JJ	.	.	.
8D/J	.	8a\J	.	16dd\	.	.	16dd\LL	-ne-	.	.
.	.	.	.	16cc\JJ	.	.	16cc\JJ	.	.	.
!LO:TX:a:t=P:problem=mixed beam	!	!	!	!	!	!	!	!	!	!
8GG/L	.	8a/L	.	8cc\L	.	.	8cc\	-ran-	.	.
8GG/	.	8g/J	.	8b\J	.	.	8b\	-da	.	.
8G\	.	8cc\L	.	16ee\LL	.	.	16ee\LL	o-	.	.
.	.	.	.	16cc\	.	.	16cc\	.	.	.
8G\J	.	8cc\J	.	16dd\	.	.	16dd\	.	.	.
.	.	.	.	16ee\JJ	.	.	16ee\JJ	.	.	.
=17	=17	=17	=17	=17	=17	=17	=17	=17	=17	=17
8G\L	.	8b/L	.	16dd\LL	.	1ryy	8dd\	-ra	1ryy	1ryy
.	.	.	.	16gg\	.	.	.	.	.	.
8G\	.	8b/	.	16b\	.	.	16b\LL	pro	.	.
.	.	.	.	16dd\JJ	.	.	16dd\JJ	.	.	.
.	.	.	.	8qqdd/	.	.	8qqdd/	.	.	.
8D\	.	8a/	.	4ccM\	.	.	4cc\	no-	.	.
8D\J	.	8a/J	.	.	.	.	.	.	.	.
8G\L	.	8g/L	.	16b\LL	.	.	8b\	-bis	.	.
.	.	.	.	16gg\	.	.	.	.	.	.
8G\	.	8b/J	.	16b\	.	.	16b\LL	pro	.	.
.	.	.	.	16dd\JJ	.	.	16dd\JJ	.	.	.
.	.	8qqb/	.	8qqdd/	.	.	8qqdd/	.	.	.
8D\	.	4a/	.	4ccM\	.	.	4cc\	no-	.	.
8D\J	.	.	.	.	.	.	.	.	.	.
!	!	!LO:LB:g=original	!	!	!	!	!	!	!	!
=18	=18	=18	=18	=18	=18	=18	=18	=18	=18	=18
8GG/L	.	8g/L	.	8b\L	.	1ryy	4b\	-bis	1ryy	1ryy
8GG/	.	8g/	.	8b\	.	.	.	.	.	.
8C/	.	8g/	.	8ee\	.	.	8ee\	vir-	.	.
8C/J	.	8g/J	.	8ee\J	.	.	8ee\	-go	.	.
4GG/	.	8b/	.	8dd\	.	.	8.ddT\	prae-	.	.
.	.	4a/	.	4cc\	.	.	.	.	.	.
.	.	.	.	.	.	.	32cc\LLL	.	.	.
.	.	.	.	.	.	.	32dd\JJJ	.	.	.
8r	.	.	.	.	.	.	8ee\	-di	.	.
!	!	!	!	!	!	!	!LO:LB:g=original	!	!	!
8GG/	.	8g/	.	8b\	.	.	8g\	di-	.	.
=19	=19	=19	=19	=19	=19	=19	=19	=19	=19	=19
8D\L	.	8g/L	.	8b/L	.	1ryy	8g/	-can-	1ryy	1ryy
8D\	.	8f#X/	.	8a/	.	.	8f#X/	-da	.	.
*	*	*	*	*	*	*	*Xtuplet	*	*	*
8D\	.	8f#/	.	8a/	.	.	24a\LL	o-	.	.
.	.	.	.	.	.	.	24b\	.	.	.
.	.	.	.	.	.	.	24cc\JJ	.	.	.
8D\J	.	8f#/J	.	8a/J	.	.	24cc\LL	.	.	.
.	.	.	.	.	.	.	24b\	.	.	.
.	.	.	.	.	.	.	24a\JJ	.	.	.
8D\L	.	8g/L	.	8b\L	.	.	4b\	-ra	.	.
8D\	.	8g/	.	8b\	.	.	.	.	.	.
8D\	.	8g/	.	8b\	.	.	24b\LL	o-	.	.
.	.	.	.	.	.	.	24cc\	.	.	.
.	.	.	.	.	.	.	24dd\JJ	.	.	.
8D\J	.	8g/J	.	8b\J	.	.	24dd\LL	.	.	.
.	.	.	.	.	.	.	24cc\	.	.	.
.	.	.	.	.	.	.	24b\JJ	.	.	.
=20	=20	=20	=20	=20	=20	=20	=20	=20	=20	=20
8D\L	.	8a/L	.	8cc\L	.	1ryy	4cc\	-ra	1ryy	1ryy
8D\	.	8a/	.	8cc\	.	.	.	.	.	.
8D\	.	8a/	.	8cc\	.	.	24cc\LL	o-	.	.
.	.	.	.	.	.	.	24dd\	.	.	.
.	.	.	.	.	.	.	24ee\JJ	.	.	.
8D\J	.	8a/J	.	8cc\J	.	.	24ee\LL	.	.	.
.	.	.	.	.	.	.	24dd\	.	.	.
.	.	.	.	.	.	.	24cc\JJ	.	.	.
8GG/L	.	8g/L	.	8b\L	.	.	8b\	-ra	.	.
8BB/J	.	8g/	.	8gg\J	.	.	8gg\	o-	.	.
!LO:TX:a:t=P:problem=mixed beam	!	!	!	!	!	!	!	!	!	!
8D\L	.	8a/	.	16ff#X\LL	.	.	16ff#X\LL	-ra	.	.
.	.	.	.	16ee\	.	.	16ee\JJ	.	.	.
8DD/J	.	8a/J	.	16dd\	.	.	16dd\LL	pro	.	.
.	.	.	.	16cc\JJ	.	.	16cc\JJ	.	.	.
!LO:LB:g=original	!	!	!	!LO:LB:g=original	!	!	!	!	!	!
=21	=21	=21	=21	=21	=21	=21	=21	=21	=21	=21
8GG/L	.	8g/L	.	8b\L	.	1ryy	8b\L	no-	1ryy	1ryy
8C/	.	8g/	.	8ee\J	.	.	8ee\J	.	.	.
8BB/	.	8g/	.	16dd\LL	.	.	16dd\LL	.	.	.
.	.	.	.	16cc\	.	.	16cc\	.	.	.
8C/J	.	8e/J	.	16b\	.	.	16b\	.	.	.
.	.	.	.	16a\JJ	.	.	16a\JJ	.	.	.
!LO:TX:a:t=P:problem=mixed beam	!	!	!	!	!	!	!	!	!	!
8D\L	.	4g/	.	4g/	.	.	4g\	.	.	.
8D\	.	.	.	.	.	.	.	.	.	.
8DD/	.	4f#Xm/	.	4aM/	.	.	4aT\	.	.	.
8DD/J	.	.	.	.	.	.	.	.	.	.
=22	=22	=22	=22	=22	=22	=22	=22	=22	=22	=22
!	!	!	!	!LO:TX:a:t=P:problem=mixed beam	!	!	!	!	!	!
8GG/L	.	8g/L	.	8g/L	.	1ryy	8g\	-bis	1ryy	1ryy
8BB/J	.	8g/	.	8gg\J	.	.	8gg\	o-	.	.
!LO:TX:a:t=P:problem=mixed beam	!	!	!	!	!	!	!	!	!	!
8D\L	.	8a/	.	16ff#X\LL	.	.	16ff\LL	-ra	.	.
.	.	.	.	16ee\	.	.	16ee\JJ	.	.	.
8FF#X/J	.	8a/J	.	16dd\	.	.	16dd\LL	pro	.	.
.	.	.	.	16cc\JJ	.	.	16cc\JJ	.	.	.
!	!	!	!	!	!	!	!LO:LB:g=original	!	!	!
8GG/L	.	8g/L	.	8b\L	.	.	8b\L	no-	.	.
8C/	.	8g/	.	8ee\J	.	.	8ee\J	.	.	.
8BB/	.	8g/	.	16dd\LL	.	.	16dd\LL	.	.	.
.	.	.	.	16cc\	.	.	16cc\	.	.	.
8C/J	.	8e/J	.	16b\	.	.	16b\	.	.	.
.	.	.	.	16a\JJ	.	.	16a\JJ	.	.	.
=23	=23	=23	=23	=23	=23	=23	=23	=23	=23	=23
*	*	*^	*	*	*	*	*	*	*	*
!LO:TX:a:t=P:problem=mixed beam	!	!	!	!	!	!	!	!	!	!	!
8D\L	.	4g/	4ryy	.	4g/	.	1ryy	4g\	.	1ryy	1ryy
8D\	.	.	.	.	.	.	.	.	.	.	.
8DD/	.	4f#X/	4ryy	.	4aM/	.	.	4aT\	.	.	.
8DD/J	.	.	.	.	.	.	.	.	.	.	.
8GG/L	.	4g/	4ryy	.	4g/	.	.	4g\	-bis	.	.
8AA/J	.	.	.	.	.	.	.	.	.	.	.
!LO:TX:a:t=P:problem=mixed beam	!	!	!	!	!	!	!	!	!	!	!
8BB/L	.	8r	8ryy	.	8r	.	.	4r	.	.	.
8F#X\J	.	8a/	8f#\	.	8a/	f	.	.	.	.	.
*	*	*v	*v	*	*	*	*	*	*	*	*
=24	=24	=24	=24	=24	=24	=24	=24	=24	=24	=24
8G\L	.	16cc\LL	.	16b\LL	.	1ryy	00r	.	1ryy	1ryy
.	.	16g\J	.	16g\J	.	.	.	.	.	.
8G\	.	8dd\J	.	8ee\J	.	.	.	.	.	.
!	!	!LO:LB:g=original	!	!	!	!	!	!	!	!
8A\	.	16cc#X\LL	.	16cc#X\LL	.	.	.	.	.	.
.	.	16b\	.	16b\	.	.	.	.	.	.
8A\J	.	16a\	.	16a\	.	.	.	.	.	.
.	.	16g\JJ	.	16g\JJ	.	.	.	.	.	.
8D\L	.	8g/L	.	8gM/L	.	.	.	.	.	.
!	!	!LO:SIC:s=:v:8f#	!	!	!	!	!	!	!	!
8D\	.	8f/J	.	8f#X/J	.	.	.	.	.	.
8G\	.	16b/LL	.	16b/LL	.	.	.	.	.	.
.	.	16g/	.	16g/	.	.	.	.	.	.
8E\J	.	16a/	.	16a/	.	.	.	.	.	.
.	.	16b/JJ	.	16b/JJ	.	.	.	.	.	.
=25	=25	=25	=25	=25	=25	=25	=25	=25	=25	=25
!LO:TX:a:t=P:problem=mixed beam	!	!	!	!	!	!	!	!	!	!
8F#X\L	.	16a/LL	.	16a/LL	.	1ryy	.	.	1ryy	1ryy
.	.	16dd/	.	16dd/	.	.	.	.	.	.
8E\	.	16f#X/	.	16f#X/	.	.	.	.	.	.
.	.	16a/JJ	.	16a/JJ	.	.	.	.	.	.
.	.	8qqa/	.	8qqa/	.	.	.	.	.	.
8F#\	.	4gM/	.	4gM/	.	.	.	.	.	.
8AA/J	.	.	.	.	.	.	.	.	.	.
!LO:TX:a:t=P:problem=mixed beam	!	!	!	!	!	!	!	!	!	!
8D\L	.	16f#/LL	.	16f#/LL	.	.	.	.	.	.
.	.	16dd/	.	16dd/	.	.	.	.	.	.
8F#\	.	16f#/	.	16f#/	.	.	.	.	.	.
.	.	16a/JJ	.	16a/JJ	.	.	.	.	.	.
!	!	!	!	!LO:SIC:o=:v:zamazany krzyżyk (custos?) po kresce taktowej	!	!	!	!	!	!
.	.	8qqa/	.	8qqa/	.	.	.	.	.	.
8E\	.	4gM/	.	4gM/	.	.	.	.	.	.
8AA/J	.	.	.	.	.	.	.	.	.	.
!	!	!	!	!LO:LB:g=original	!	!	!	!	!	!
=26	=26	=26	=26	=26	=26	=26	=26	=26	=26	=26
!LO:TX:a:t=P:problem=mixed beam	!	!	!	!LO:SIC:o=:v:zamazany krzyżyk	!	!	!	!	!	!
8D\L	.	24f#X/LL	.	24f#X/LL	.	1ryy	.	.	1ryy	1ryy
.	.	24dd/	.	24dd/	.	.	.	.	.	.
.	.	24cc#X/JJ	.	24cc#X/JJ	.	.	.	.	.	.
8G\	.	24b/LL	.	24b/LL	.	.	.	.	.	.
.	.	24a/	.	24a/	.	.	.	.	.	.
.	.	24g/JJ	.	24g/JJ	.	.	.	.	.	.
8A\	.	8f#X/L	.	8f#X/L	.	.	.	.	.	.
8AA/J	.	8e/J	.	8e/J	.	.	.	.	.	.
.	.	8qqe/	.	8qqe/	.	.	.	.	.	.
8D/L	.	4d/	.	4d/	.	.	.	.	.	.
8D/	.	.	.	.	.	.	.	.	.	.
8BB/	.	16g\LL	.	16g/LL	.	.	.	.	.	.
.	.	16dd\J	.	(16dd/J	.	.	.	.	.	.
8GG/J	.	8ddM\J	.	8ddM/J)	.	.	.	.	.	.
!LO:LB:g=original	!	!	!	!	!	!	!	!	!	!
=27	=27	=27	=27	=27	=27	=27	=27	=27	=27	=27
8C/L	.	16ee\LL	.	16ee\LL	.	1ryy	.	.	1ryy	1ryy
.	.	16cc\J	.	16ccn\J	.	.	.	.	.	.
8E/	.	8cc\J	.	8cc\J	.	.	.	.	.	.
!	!	!LO:TX:a:t=P:problem=mixed beam	!	!	!	!	!	!	!	!
8BB/	.	16dd\LL	.	16dd\LL	.	.	.	.	.	.
.	.	(16fn/	.	16f/J	.	.	.	.	.	.
!	!	!LO:N:vis=16	!	!	!	!	!	!	!	!
8GG/J	.	8fM/JJ)	.	8fM/J	.	.	.	.	.	.
!LO:TX:a:t=P:problem=mixed beam	!	!	!	!	!	!	!	!	!	!
8C/L	.	8f/L	.	8f/L	.	.	.	.	.	.
8C/	.	8e/J	.	8e/J	.	.	.	.	.	.
8c\	.	4ee\	.	4ee\	.	.	.	.	.	.
8A\J	.	.	.	.	.	.	.	.	.	.
=28	=28	=28	=28	=28	=28	=28	=28	=28	=28	=28
.	.	8qqee/	.	8qqee/	.	.	.	.	.	.
8B\L	.	4dd\	.	4dd\	.	1ryy	00r	.	1ryy	1ryy
8G\	.	.	.	.	.	.	.	.	.	.
8A\	.	16cc\LL	.	16cc\LL	.	.	.	.	.	.
.	.	16b\	.	16b\	.	.	.	.	.	.
8C\J	.	16a\	.	16a\	.	.	.	.	.	.
.	.	16g\JJ	.	16g\JJ	.	.	.	.	.	.
!	!	!LO:LB:g=original	!	!	!	!	!	!	!	!
8D\L	.	16f#X/LL	.	16f#X/LL	.	.	.	.	.	.
.	.	16e/J	.	16e/J	.	.	.	.	.	.
8D\	.	8d/J	.	8d/J	.	.	.	.	.	.
8F#X\	.	16cc\LL	.	16ccn\LL	.	.	.	.	.	.
.	.	16cc\	.	16cc\	.	.	.	.	.	.
8D\J	.	16cc\	.	16cc\	.	.	.	.	.	.
.	.	16cc\JJ	.	16cc\JJ	.	.	.	.	.	.
=29	=29	=29	=29	=29	=29	=29	=29	=29	=29	=29
8G\L	.	16b\LL	.	16b\LL	.	1ryy	.	.	1ryy	1ryy
.	.	16dd\J	.	16dd\J	.	.	.	.	.	.
8B\	.	8gg\J	.	8gg\J	.	.	.	.	.	.
8A\	.	16cc\LL	.	16cc\LL	.	.	.	.	.	.
.	.	16cc\	.	16cc\	.	.	.	.	.	.
8D\J	.	16cc\	.	16cc\	.	.	.	.	.	.
.	.	16cc\JJ	.	16cc\JJ	.	.	.	.	.	.
8G\L	.	16b\LL	.	16b\LL	.	.	.	.	.	.
.	.	16dd\J	.	16dd\J	.	.	.	.	.	.
8B\	.	8gg\J	.	8gg\J	.	.	.	.	.	.
8c\	.	4ee\	.	4ee\	.	.	.	.	.	.
8A\J	.	.	.	.	.	.	.	.	.	.
=30	=30	=30	=30	=30	=30	=30	=30	=30	=30	=30
8B\L	.	16dd\LL	.	16dd\LL	.	1ryy	.	.	1ryy	1ryy
.	.	16b\	.	16b\	.	.	.	.	.	.
8c\	.	16cc\	.	16cc\	.	.	.	.	.	.
.	.	16a\JJ	.	16a\JJ	.	.	.	.	.	.
8d\	.	16b/LL	.	16b/LL	.	.	.	.	.	.
.	.	16g/	.	16g/	.	.	.	.	.	.
8B\J	.	16a/	.	16a/	.	.	.	.	.	.
!	!	!LO:SIC:s=:v:16f#	!	!	!	!	!	!	!	!
.	.	16f/JJ	.	16f#X/JJ	.	.	.	.	.	.
!	!	!	!	!LO:LB:g=original	!	!	!	!	!	!
!	!	!LO:SIC:s=:v:8qf#	!	!	!	!	!	!	!	!
.	.	8qqf/	.	.	.	.	.	.	.	.
8G\L	p	4g/	.	8f#/L	.	.	.	.	.	.
8B\	.	.	.	8g/J	.	.	.	.	.	.
8A\	.	16cc\LL	p	16cc\LL	p	.	.	.	.	.
.	.	16cc\	.	16cc\	.	.	.	.	.	.
8D\J	.	16cc\	.	16cc\	.	.	.	.	.	.
.	.	16cc\JJ	.	16cc\JJ	.	.	.	.	.	.
=31	=31	=31	=31	=31	=31	=31	=31	=31	=31	=31
8G\L	.	16b\LL	.	16b\LL	.	1ryy	.	.	1ryy	1ryy
.	.	16dd\J	.	16dd\J	.	.	.	.	.	.
8B\	.	8gg\J	.	8gg\J	.	.	.	.	.	.
8A\	.	16cc\LL	.	16cc\LL	.	.	.	.	.	.
.	.	16cc\	.	16cc\	.	.	.	.	.	.
8D\J	.	16cc\	.	16cc\	.	.	.	.	.	.
.	.	16cc\JJ	.	16cc\JJ	.	.	.	.	.	.
8G\L	.	16b\LL	.	16b\LL	.	.	.	.	.	.
.	.	16dd\J	.	16dd\J	.	.	.	.	.	.
8B\	.	8gg\J	.	8gg\J	.	.	.	.	.	.
8c\	.	4ee\	.	4ee\	.	.	.	.	.	.
8A\J	.	.	.	.	.	.	.	.	.	.
=32	=32	=32	=32	=32	=32	=32	=32	=32	=32	=32
!	!LO:DY:b	!	!	!	!	!	!	!	!	!
8B\L	f	16dd\LL	.	16dd\LL	.	1ryy	1r	.	1ryy	1ryy
.	.	16b\	.	16b\	.	.	.	.	.	.
8c\	.	16cc\	.	16cc\	.	.	.	.	.	.
.	.	16a\JJ	.	16a\JJ	.	.	.	.	.	.
8d\	.	16b/LL	.	16b/LL	.	.	.	.	.	.
.	.	16g/	.	16g/	.	.	.	.	.	.
8D\J	.	16a/	.	16a/	.	.	.	.	.	.
*	*	*custos:dd	*	*	*	*	*	*	*	*
!	!	!LO:SIC:s=:v:16f#	!	!	!	!	!	!	!	!
.	.	16f/JJ	.	16f#X/JJ	.	.	.	.	.	.
!	!	!LO:LB:g=original	!	!	!	!	!	!	!	!
!LO:SIC:o:s=:v:4\right	!	!	!	!	!	!	!	!	!	!
4G\	.	8g/L	.	8g/L	f	.	.	.	.	.
.	.	16d/L	.	16d/L	.	.	.	.	.	.
.	.	16B/JJ	.	16B/JJ	.	.	.	.	.	.
4r	.	4G/	.	4G/	.	.	.	.	.	.
=33	=33	=33	=33	=33	=33	=33	=33	=33	=33	=33
8G\L	p	8b\L	p	4dd\	p	1ryy	4dd\	vir-	1ryy	1ryy
8G\	.	8b\	.	.	.	.	.	.	.	.
8F#X\	.	8a\	.	16dd\LL	.	.	16dd\LL	-go	.	.
.	.	.	.	16cc\	.	.	16cc\	.	.	.
8F#\J	.	8a\J	.	16b\	.	.	16b\	.	.	.
.	.	.	.	16a\JJ	.	.	16a\JJ	.	.	.
.	.	.	.	8qqa/	.	.	.	.	.	.
8E\L	.	8g/L	.	16g/LL	.	.	16g/LL	po-	.	.
!	!	!	!	!LO:SIC:s=:v:16f#	!	!	!	!	!	!
.	.	.	.	16f/J	.	.	16f#X/JJ	.	.	.
*custos:C	*	*	*	*	*	*	*	*	*	*
8E\J	.	8g/	.	[8g/J	.	.	8g/	-tens	.	.
!	!	!	!	!LO:TX:a:t=P:problem=mixed beam	!	!	!	!	!	!
!LO:LB:g=original	!	!	!	!	!	!	!	!	!	!
8BB/L	.	8d/	.	16g/LL]	.	.	4r	.	.	.
.	.	.	.	16gg\	.	.	.	.	.	.
!	!	!	!	!LO:SIC:o=:v:♯ above	!	!	!	!	!	!
8BB/J	.	8d/J	.	16ff#X\	.	.	.	.	.	.
.	.	.	.	16gg\JJ	.	.	.	.	.	.
=34	=34	=34	=34	=34	=34	=34	=34	=34	=34	=34
8C/L	.	4cc\	.	4ee\	.	1ryy	4ee\	o-	1ryy	1ryy
8C/	.	.	.	.	.	.	.	.	.	.
8D/	.	16b/LL	.	16dd\LL	.	.	16dd\LL	-ra	.	.
.	.	16g/	.	16b\	.	.	16b\JJ	.	.	.
8D/J	.	16a/	.	16cc\	.	.	16cc\LL	pro	.	.
.	.	16f#X/JJ	.	16a\JJ	.	.	16a\JJ	.	.	.
8GG/L	.	8d/L	.	(16b/LL	.	.	16b\LL	no-	.	.
.	.	.	.	16a/J)	.	.	16a\JJ	.	.	.
8GG/	.	16c/L	.	[8g/J	.	.	8g\	-bis	.	.
.	.	16B/JJ	.	.	.	.	.	.	.	.
!	!	!	!	!LO:TX:a:t=P:problem=mixed beam	!	!	!	!	!	!
8BB/	.	8d/L	.	16g/LL]	.	.	16r	.	.	.
.	.	.	.	16gg\	.	.	16gg\LL	o-	.	.
8BB/J	.	8d/J	.	16ff\	.	.	16ff#X\	.	.	.
.	.	.	.	16gg\JJ	.	.	16gg\JJ	.	.	.
!	!	!	!	!LO:LB:g=original	!	!	!	!	!	!
=35	=35	=35	=35	=35	=35	=35	=35	=35	=35	=35
8C/L	.	4cc\	.	4ee\	.	1ryy	4ee\	-ra	1ryy	1ryy
8C/	.	.	.	.	.	.	.	.	.	.
8D/	.	(16b/LL	.	16dd\LL	.	.	16dd\LL	pro	.	.
.	.	16g/	.	16cc\	.	.	16b\JJ	.	.	.
8D/J	.	16a/)	.	16b\	.	.	16cc\LL	no-	.	.
!	!	!LO:SIC:s=:v:16f#	!	!	!	!	!	!	!	!
.	.	16f/JJ	.	16a\JJ	.	.	16a\JJ	.	.	.
8GG/L	.	8d/L	.	16b/LL	.	.	16b\LL	.	.	.
.	.	.	.	16a/J	.	.	16a\JJ	.	.	.
8GG/	.	16c/L	.	8g/J	.	.	8g/	-bis	.	.
.	.	16B/JJ	.	.	.	.	.	.	.	.
8BB/	.	16b/LL	.	16dd\LL	.	.	4r	.	.	.
.	.	(16g/	.	16b\	.	.	.	.	.	.
8D/J	.	16a/	.	16cc\	.	.	.	.	.	.
.	.	16f#X/JJ)	.	16a\JJ	.	.	.	.	.	.
!	!	!	!	!	!	!	!LO:LB:g=original	!	!	!
=36	=36	=36	=36	=36	=36	=36	=36	=36	=36	=36
8GG/L	.	8g/L	.	8b\L	.	1ryy	4dd\	vir-	1ryy	1ryy
8GG/	.	8b/	.	8dd\	.	.	.	.	.	.
8GG/	.	8b/	.	8dd\	.	.	16dd\LL	-go	.	.
.	.	.	.	.	.	.	16gg\JJ	.	.	.
8GG/J	.	8cc/J	.	8ee\J	.	.	16ee\LL	Cle-	.	.
.	.	.	.	.	.	.	16dd\JJ	.	.	.
.	.	.	.	8qqdd/	.	.	.	.	.	.
8D\L	.	8a/L	.	8cc\L	.	.	16cc\LL	.	.	.
.	.	.	.	.	.	.	16b\JJ	.	.	.
8D\	.	8a/	.	8cc\	.	.	8cc\	-mens	.	.
8D\	.	8a/	.	8cc\	.	.	8r	.	.	.
8D\J	.	8a/J	.	[8cc\J	.	.	8cc\	o-	.	.
=37	=37	=37	=37	=37	=37	=37	=37	=37	=37	=37
8D\L	.	8a/L	.	8cc\L]	.	1ryy	4aa\	.	1ryy	1ryy
8D\	.	8a/	.	8cc\	.	.	.	.	.	.
8D\	.	8a/	.	8cc\	.	.	24aa\LL	-ra	.	.
.	.	.	.	.	.	.	24gg\	.	.	.
!	!	!	!	!	!	!	!LO:SIC:s=:v:16ff#	!	!	!
.	.	.	.	.	.	.	24ff\JJ	.	.	.
8D\J	.	8a/J	.	8cc\J	.	.	24ee\LL	pro	.	.
.	.	.	.	.	.	.	24dd\	.	.	.
.	.	.	.	.	.	.	24cc\JJ	.	.	.
!LO:TX:a:t=P:problem=mixed beam	!	!	!	!	!	!	!	!	!	!
8GG/L	.	8g/L	.	8b\L	.	.	16b\LL	no-	.	.
.	.	.	.	.	.	.	16a\JJ	.	.	.
*	*	*custos:b	*	*	*	*	*	*	*	*
8GG/	.	8g/J	.	8b\	.	.	8b\	-bis	.	.
!	!	!LO:LB:g=original	!	!	!	!	!	!	!	!
!	!	!LO:SIC:o=:v:pięciolinia zamazana	!	!	!	!	!	!	!	!
8G\	.	8cc\L	.	8ee\	.	.	4ee\	o-	.	.
8G\J	.	8cc\J	.	8ee\J	.	.	.	.	.	.
=38	=38	=38	=38	=38	=38	=38	=38	=38	=38	=38
8G\L	.	8cc\L	.	8dd\L	.	1ryy	8dd\	-ra	1ryy	1ryy
8G\	.	8cc\	.	8dd\	.	.	16ee\LL	pro	.	.
.	.	.	.	.	.	.	16dd\JJ	.	.	.
8F#X\	.	8b\	.	8cc\	.	.	16cc\LL	.	.	.
.	.	.	.	.	.	.	16b\JJ	.	.	.
8G\J	.	8a\J	.	8b\J	.	.	16a\LL	no-	.	.
.	.	.	.	.	.	.	16g\JJ	.	.	.
!LO:TX:a:t=P:problem=mixed beam	!	!	!	!	!	!	!	!	!	!
8d\L	.	8g/L	.	8b/L	.	.	8g/	.	.	.
8D/	.	8f#X/	.	8a/	.	.	8f#X/	-bis	.	.
8D/	.	8f#/	.	8a/	.	.	16f#/LL	o-	.	.
.	.	.	.	.	.	.	16g/	.	.	.
8D/J	.	8f#/J	.	8a/J	.	.	16a/	.	.	.
.	.	.	.	.	.	.	16b/JJ	.	.	.
=39	=39	=39	=39	=39	=39	=39	=39	=39	=39	=39
!	!	!LO:SIC:s=:v:8f#	!	!	!	!	!	!	!	!
8D\L	.	8f/L	.	8a/L	.	1ryy	8.cc\L	-o-	1ryy	1ryy
!	!	!LO:SIC:s=:v:8f#	!	!	!	!	!	!	!	!
8D\	.	8f/	.	8a/	.	.	.	.	.	.
.	.	.	.	.	.	.	32b\LL	.	.	.
.	.	.	.	.	.	.	32a\JJJ	.	.	.
!	!	!LO:SIC:s=:v:8f#	!	!	!	!	!	!	!	!
8D\	.	8f/	.	8a/	.	.	8g/L	.	.	.
!	!	!LO:SIC:s=:v:8f#	!	!	!	!	!	!	!	!
8D\J	.	8f/J	.	8a/J	.	.	8f#X/J	.	.	.
8D\L	.	8g/L	.	8b\L	.	.	4g\	-ra	.	.
8D\	.	8g/	.	8b\	.	.	.	.	.	.
8D\	.	8g/	.	8b\	.	.	16g\LL	o-	.	.
.	.	.	.	.	.	.	16a\	.	.	.
8D\J	.	8g/J	.	8b\J	.	.	16b\	.	.	.
.	.	.	.	.	.	.	16cc\JJ	.	.	.
!LO:LB:g=original	!	!	!	!	!	!	!LO:LB:g=original	!	!	!
=40	=40	=40	=40	=40	=40	=40	=40	=40	=40	=40
8D\L	.	8g/L	.	8b\L	.	1ryy	8.dd\L	-o-	1ryy	1ryy
8D\	.	8g/	.	8b\	.	.	.	.	.	.
.	.	.	.	.	.	.	32cc\LL	.	.	.
.	.	.	.	.	.	.	32b\JJJ	.	.	.
8D\	.	8g/	.	8b\	.	.	8a\L	.	.	.
8D\J	.	8g/J	.	8b\J	.	.	8g\J	.	.	.
8D\L	.	8a/L	.	8cc\L	.	.	4a\	-ra	.	.
8D\	.	8a/	.	8cc\	.	.	.	.	.	.
8D\	.	8a/	.	8cc\	.	.	16a\LL	o	.	.
.	.	.	.	.	.	.	16b\	.	.	.
8D\J	.	8a/J	.	8cc\J	.	.	16cc\	.	.	.
.	.	.	.	.	.	.	16dd\JJ	.	.	.
=41	=41	=41	=41	=41	=41	=41	=41	=41	=41	=41
8D\L	.	8a/L	.	8cc\L	.	1ryy	8.ee\L	o-	1ryy	1ryy
8D\	.	8a/	.	8cc\	.	.	.	.	.	.
.	.	.	.	.	.	.	32dd\LL	.	.	.
.	.	.	.	.	.	.	32cc\JJJ	.	.	.
8D\	.	8a/	.	8cc\	.	.	8b\L	-ra	.	.
*	*	*	*	*custos:cc	*	*	*	*	*	*
8D\J	.	8a/J	.	8cc\J	.	.	8a\J	.	.	.
!	!	!	!	!LO:LB:g=original	!	!	!	!	!	!
8GG/L	.	8g/L	.	8b\L	.	.	8b\	o	.	.
8BB/	.	8b/	.	8gg\J	.	.	8gg\	pro	.	.
!	!	!	!	!	!	!	!LO:SIC:s=:v:16ff#	!	!	!
8C/	.	8g/	.	16ff#X\LL	.	.	16ff\LL	no-	.	.
.	.	.	.	16ee\	.	.	16ee\	.	.	.
8C/J	.	8a/J	.	16dd\	.	.	16dd\	.	.	.
.	.	.	.	16cc\JJ	.	.	16cc\JJ	.	.	.
=42	=42	=42	=42	=42	=42	=42	=42	=42	=42	=42
*	*	*	*	*tuplet	*	*	*	*	*	*
!LO:TX:a:t=P:problem=mixed beam	!	!	!	!	!	!	!LO:TUP:a:problem=klamra łukowa	!	!	!
8D\L	.	4g/	.	12b/L	.	1ryy	12b\L	.	1ryy	1ryy
.	.	.	.	12a/	.	.	12a\	.	.	.
8D\	.	.	.	.	.	.	.	.	.	.
.	.	.	.	12g/J	.	.	12g\J	.	.	.
8DD/	.	4f#Xm/	.	4aM/	.	.	4aT\	.	.	.
8DD/J	.	.	.	.	.	.	.	.	.	.
4GG/	.	4g/	.	4g/	.	.	4g\	-bis	.	.
8E\L	.	8g/L	.	16cc\LL	.	.	8cc\	vir-	.	.
.	.	.	.	16gg\J	.	.	.	.	.	.
8C\J	.	8e/J	.	8ggM\J	.	.	8gg\	-go	.	.
=43	=43	=43	=43	=43	=43	=43	=43	=43	=43	=43
8F\L	.	8a/L	.	16aa\LL	.	1ryy	8aa\	.	1ryy	1ryy
.	.	.	.	16ff\J	.	.	.	.	.	.
8A\	.	8cc/	.	8ffM\J	.	.	8ff\	.	.	.
8E\	.	8g/	.	16gg\LL	.	.	8gg\	fi-	.	.
.	.	.	.	16b-X\J	.	.	.	.	.	.
8C\J	.	8e/J	.	8b-M\J	.	.	8b-X\	-de-	.	.
!LO:TX:a:t=P:problem=mixed beam	!	!	!	!	!	!	!	!	!	!
8F\L	.	8g/L	.	8b-/L	.	.	8b-\	-lis	.	.
8FF/J	.	8f/	.	8a/J	.	.	8a\	o-	.	.
8F\L	.	8cc/	.	4aa\	.	.	4aa\	.	.	.
8D\J	.	8cc/J	.	.	.	.	.	.	.	.
!	!	!LO:LB:g=original	!	!	!	!	!	!	!	!
=44	=44	=44	=44	=44	=44	=44	=44	=44	=44	=44
8E\L	.	8b\L	.	4gg\	.	1ryy	4gg\	-ra	1ryy	1ryy
8C\	.	8dd\	.	.	.	.	.	.	.	.
8F\	.	8a\	.	16ff\LL	.	.	16ff\LL	pro	.	.
.	.	.	.	16ee\	.	.	16ee\	.	.	.
8F\J	.	8a\J	.	16dd\	.	.	16dd\	.	.	.
.	.	.	.	16cc\JJ	.	.	16cc\JJ	.	.	.
!LO:TX:a:t=P:problem=mixed beam	!	!	!	!	!	!	!	!	!	!
8G\L	.	8a/L	.	8cc\L	.	.	16bn\LL	no-	.	.
.	.	.	.	.	.	.	16a\JJ	.	.	.
!	!	!	!	!	!	!	!LO:LB:g=original	!	!	!
8GG/	.	8g/J	.	8b\J	.	.	8g\	-bis	.	.
8GG/	.	16dd\LL	.	16ff\LL	.	.	4ff\	o-	.	.
.	.	16dd\	.	16ff\	.	.	.	.	.	.
8GG/J	.	16dd\	.	16ff\	.	.	.	.	.	.
.	.	16dd\JJ	.	16ff\JJ	.	.	.	.	.	.
=45	=45	=45	=45	=45	=45	=45	=45	=45	=45	=45
8C/L	.	8cc\L	.	16ee\LL	.	1ryy	8ee\	-ra	1ryy	1ryy
.	.	.	.	16gg\J	.	.	.	.	.	.
8C/	.	8ee\J	.	8ccc\J	.	.	8gg\	pro	.	.
.	.	.	.	.	.	.	8qqee/	.	.	.
8GG/	.	16dd\LL	.	16ff\LL	.	.	4ff\	no-	.	.
.	.	16dd\	.	16ff\	.	.	.	.	.	.
8GG/J	.	16dd\	.	16ff\	.	.	.	.	.	.
.	.	16dd\JJ	.	16ff\JJ	.	.	.	.	.	.
8C/L	.	8cc\L	.	16ee\LL	.	.	4ee\	-bis	.	.
.	.	.	.	16gg\J	.	.	.	.	.	.
8C/	.	8ee\	.	8ccc\J	.	.	.	.	.	.
8F/	.	8cc\	.	4aa\	.	.	4aa\	o-	.	.
8D/J	.	8cc\J	.	.	.	.	.	.	.	.
!	!	!	!	!LO:LB:g=original	!	!	!	!	!	!
=46	=46	=46	=46	=46	=46	=46	=46	=46	=46	=46
!LO:TX:a:t=P:problem=mixed beam	!	!	!	!	!	!	!	!	!	!
8E\L	.	8cc\L	.	16gg\LL	.	1ryy	16gg\LL	-ra	1ryy	1ryy
.	.	.	.	16ee\	.	.	16ee\JJ	.	.	.
8F\	.	8dd\	.	16ff\	.	.	16ff\LL	pro	.	.
.	.	.	.	16dd\JJ	.	.	16dd\JJ	.	.	.
8G\	.	8cc\	.	16ee\LL	.	.	16ee\LL	no-	.	.
.	.	.	.	16cc\	.	.	16cc\	.	.	.
8GG/J	.	8b\J	.	16dd\	.	.	16dd\	.	.	.
.	.	.	.	16b\JJ	.	.	16b\JJ	.	.	.
8C/L	.	4cc\	.	4ccM\	.	.	4cc\	-bis	.	.
*custos:F	*	*	*	*	*	*	*	*	*	*
8E/J	.	.	.	.	.	.	.	.	.	.
!LO:LB:g=original	!	!	!	!	!	!	!	!	!	!
!LO:TX:a:t=P:problem=mixed beam	!	!	!	!	!	!	!	!	!	!
8G\L	.	16dd\LL	.	16ff\LL	.	.	4ff\	o-	.	.
.	.	16dd\	.	16ff\	.	.	.	.	.	.
8GG/J	.	16dd\	.	16ff\	.	.	.	.	.	.
.	.	16dd\JJ	.	16ff\JJ	.	.	.	.	.	.
=47	=47	=47	=47	=47	=47	=47	=47	=47	=47	=47
8C\L	.	8cc\L	.	16ee\LL	.	1ryy	8ee\	-ra	1ryy	1ryy
.	.	.	.	16gg\J	.	.	.	.	.	.
8C\	.	8ee\J	.	8ccc\J	.	.	8gg\	pro	.	.
.	.	.	.	.	.	.	8qqee/	.	.	.
8G\	.	16dd\LL	.	16ff\LL	.	.	4ff\	no-	.	.
.	.	16dd\	.	16ff\	.	.	.	.	.	.
8G\J	.	16dd\	.	16ff\	.	.	.	.	.	.
.	.	16dd\JJ	.	16ff\JJ	.	.	.	.	.	.
8C\L	.	8cc\L	.	16ee\LL	.	.	4ee\	-bis	.	.
.	.	.	.	16gg\J	.	.	.	.	.	.
8C\	.	8ee\J	.	8ccc\J	.	.	.	.	.	.
8F\	.	8cc\L	.	4aa\	.	.	4aa\	o-	.	.
8D\J	.	8cc\J	.	.	.	.	.	.	.	.
=48	=48	=48	=48	=48	=48	=48	=48	=48	=48	=48
!LO:TX:a:t=P:problem=mixed beam	!	!	!	!	!	!	!	!	!	!
8E\L	.	8cc\L	.	16gg\LL	.	1ryy	16gg\LL	-ra	1ryy	1ryy
.	.	.	.	16ee\	.	.	16ee\JJ	.	.	.
8F\	.	8dd\	.	16ff\	.	.	16ff\LL	pro	.	.
.	.	.	.	16dd\JJ	.	.	16dd\JJ	.	.	.
8G\	.	8cc\	.	16ee\LL	.	.	16ee\LL	no-	.	.
.	.	.	.	16cc\	.	.	16cc\	.	.	.
8GG/J	.	8b\J	.	16dd\	.	.	16dd\	.	.	.
.	.	.	.	16b\JJ	.	.	16b\JJ	.	.	.
8C\L	.	4cc\	.	4cc\	.	.	8cc\	-bis	.	.
8F\J	.	.	.	.	.	.	8cc\	pro	.	.
4G;;\	.	4r;<;>	.	4r;<;>	.	.	4dd;\	no-	.	.
=49	=49	=49	=49	=49	=49	=49	=49	=49	=49	=49
!LO:TX:a:t=Da Capo	!	!LO:TX:a:t=Da Capo	!	!LO:TX:a:t=Da Capo	!	!	!	!	!	!
1ryy	.	1ryy	.	1ryy	.	1ryy	4cc;;\	-bis	1ryy	1ryy
.	.	.	.	.	.	.	4r	.	.	.
.	.	.	.	.	.	.	2r	.	.	.
=50	=50	=50	=50	=50	=50	=50	=50	=50	=50	=50
1ryy	.	1ryy	.	1ryy	.	1ryy	00r	.	1ryy	1ryy
=51	=51	=51	=51	=51	=51	=51	=51	=51	=51	=51
1ryy	.	1ryy	.	1ryy	.	1ryy	.	.	1ryy	1ryy
=52	=52	=52	=52	=52	=52	=52	=52	=52	=52	=52
1ryy	.	1ryy	.	1ryy	.	1ryy	.	.	1ryy	1ryy
=53	=53	=53	=53	=53	=53	=53	=53	=53	=53	=53
1ryy	.	1ryy	.	1ryy	.	1ryy	.	.	1ryy	1ryy
=54	=54	=54	=54	=54	=54	=54	=54	=54	=54	=54
1ryy	.	1ryy	.	1ryy	.	1ryy	00r	.	1ryy	1ryy
=55	=55	=55	=55	=55	=55	=55	=55	=55	=55	=55
1ryy	.	1ryy	.	1ryy	.	1ryy	.	.	1ryy	1ryy
=56	=56	=56	=56	=56	=56	=56	=56	=56	=56	=56
1ryy	.	1ryy	.	1ryy	.	1ryy	.	.	1ryy	1ryy
=57	=57	=57	=57	=57	=57	=57	=57	=57	=57	=57
1ryy	.	1ryy	.	1ryy	.	1ryy	.	.	1ryy	1ryy
=58	=58	=58	=58	=58	=58	=58	=58	=58	=58	=58
1ryy	.	1ryy	.	1ryy	.	1ryy	0r	.	1ryy	1ryy
=59	=59	=59	=59	=59	=59	=59	=59	=59	=59	=59
1ryy	.	1ryy	.	1ryy]	.	1ryy	.	.	1ryy	1ryy
=60	=60	=60	=60	=60	=60	=60	=60	=60	=60	=60
1ryy	.	1ryy	.	1ryy	.	1ryy	1r	.	1ryy	1ryy
!	!	!LO:TX:b:t=Verte Cito	!	!	!	!	!	!	!	!
==	==	==	==	==	==	==	==	==	==	==
*-	*-	*-	*-	*-	*-	*-	*-	*-	*-	*-
!!!system-decoration: [(s1,s2)][(s3,s4)][(s5,s6)]s7
!!!RDF**kern: > = above
!!!RDF**kern: < = below
!!!RDF**dynam: p = pia
!!!RDF**dynam: f = for
!!!EED: Leszek Kubiak
!!!EEV: 2020-10-26
!!!ENC: Krzysztof Stępień
!!!END: 2020-11-26
!!!YEC: Copyright 2022 Narodowy Instytut Fryderyka Chopina (https://polishscores.org)
!!!YEM: License CC-BY-4.0 (https://creativecommons.org/licenses/by/4.0)
